X:376
T: ICH GIENG EINMAL IN GARTEN
N: E1562
O: Europa, Mitteleuropa, Deutschland, Westfalen
R: Staende -, Bauern - Lied, Flachsbrechen, bei der Arbeit
M: 2/4
L: 1/16
K: G
G2 | F2E2F2G2 | A4F2D2 | G4z2
G2 | F2E2F2G2 | A4F2D2 | G4z2
G2 | B2B2B2B2 | c3dc2B2 |
A2A2A2A2 | d3ed2z2 |
G2G2G2G2 | A4z2
d2 | B2G2A2F2 | G4z2

@@@ Tune index: 5060
